X:801
T:Liza Jane
S:Forgotten
Z:Nigel Gatherer
M:2/4
L:1/8
K:D
FF/F/ ED | FA A2 | B A2 F | A4 |
FF/F/ ED | FA A2 | F F2 E | D4 ||
d3     A | B2 A2 | B A2 F | A4 |
d3     A | B2 A2 | F F2 E | D4 |]
